X: 48
T:Jack upon the Green. JWDM.47
M:6/8
L:1/8
S:J.Winder MS,Wyresdale,Lancs.,1789
O:England
A:Lancashire
N:Entered upside down in MS in a different hand, said to be William
N:Roberts'
N:This hand continues for the remainder of the book
Z:vmp.Taz Tarry
K:D
"*"A|d2dd2c|B2B e2e|ed2c2A|d2d d2c|B2c d2B|A2G F2:||!
:FD2DF2|EF2AD2|DE2EF2|D2DE2E|F2Ad2A|F2ED2:|]
% Oh,well...
